src/images/bid.svg

<svg xmlns="http://www.w3.org/2000/svg" width="93" height="93.26" viewBox="0 0 93 93.26">
  <g id="bid" transform="translate(-3.5 -2.93)">
    <path id="Path_1300" data-name="Path 1300" d="M94.57,69.57,58.39,33.39,70.79,21,52.71,2.93,26.7,28.94l-7.94,7.94L36.83,54.95,49.05,42.73,85.23,78.9a6.6,6.6,0,0,0,9.34-9.33ZM66.54,21l-5.82,5.82L53.8,19.9l-6.92-6.92L52.7,7.16ZM36.84,50.7,23.01,36.87l5.82-5.82L42.66,44.88Zm7.94-7.93L30.95,28.94,44.78,15.11,58.61,28.94l-2.34,2.34ZM92.45,76.78a3.685,3.685,0,0,1-5.09,0L51.18,40.61l5.09-5.09L92.44,71.69h0a3.622,3.622,0,0,1,.01,5.09Z" fill="#e1ff04"/>
    <path id="Path_1301" data-name="Path 1301" d="M25.58,72.6a1.5,1.5,0,0,0,3,0,6.156,6.156,0,0,0-4.66-5.96V64.87a1.5,1.5,0,0,0-3,0v1.77a6.141,6.141,0,0,0,0,11.92v6.11a3.151,3.151,0,0,1-1.66-2.76,1.5,1.5,0,0,0-3,0,6.156,6.156,0,0,0,4.66,5.96v1.77a1.5,1.5,0,0,0,3,0V87.87a6.141,6.141,0,0,0,0-11.92V69.84A3.143,3.143,0,0,1,25.58,72.6Zm-6.31,0a3.143,3.143,0,0,1,1.66-2.76v5.52A3.139,3.139,0,0,1,19.27,72.6Zm6.31,9.31a3.143,3.143,0,0,1-1.66,2.76V79.15A3.143,3.143,0,0,1,25.58,81.91Z" fill="#e1ff04"/>
    <path id="Path_1302" data-name="Path 1302" d="M22.43,58.33A18.93,18.93,0,1,0,41.36,77.26,18.949,18.949,0,0,0,22.43,58.33Zm0,34.86A15.93,15.93,0,1,1,38.36,77.26,15.953,15.953,0,0,1,22.43,93.19Z" fill="#e1ff04"/>
  </g>
</svg>

<svg height='300px' width='300px'  fill="#000000" xmlns="http://www.w3.org/2000/svg" xmlns:xlink="http://www.w3.org/1999/xlink" version="1.1" x="0px" y="0px" viewBox="0 0 100 100" style="enable-background:new 0 0 100 100;" xml:space="preserve"><g><path d="M94.57,69.57L58.39,33.39L70.79,21L52.71,2.93L26.7,28.94l-7.94,7.94l18.07,18.07l12.22-12.22L85.23,78.9   c1.25,1.25,2.9,1.93,4.67,1.93c1.76,0,3.42-0.69,4.67-1.93c1.25-1.25,1.93-2.9,1.93-4.67C96.5,72.47,95.81,70.82,94.57,69.57z    M66.54,21l-5.82,5.82l-6.92-6.92l-6.92-6.92l5.82-5.82L66.54,21z M36.84,50.7L23.01,36.87l5.82-5.82l13.83,13.83L36.84,50.7z    M44.78,42.77L30.95,28.94l13.83-13.83l13.83,13.83l-2.34,2.34L44.78,42.77z M92.45,76.78c-1.36,1.36-3.73,1.36-5.09,0L51.18,40.61   l5.09-5.09l36.17,36.17v0c0.68,0.68,1.05,1.58,1.05,2.55C93.5,75.2,93.12,76.1,92.45,76.78z"></path><path d="M25.58,72.6c0,0.83,0.67,1.5,1.5,1.5s1.5-0.67,1.5-1.5c0-2.88-1.99-5.29-4.66-5.96v-1.77c0-0.83-0.67-1.5-1.5-1.5   s-1.5,0.67-1.5,1.5v1.77c-2.67,0.67-4.66,3.09-4.66,5.96c0,2.88,1.99,5.29,4.66,5.96v6.11c-0.98-0.54-1.66-1.56-1.66-2.76   c0-0.83-0.67-1.5-1.5-1.5s-1.5,0.67-1.5,1.5c0,2.88,1.99,5.29,4.66,5.96v1.77c0,0.83,0.67,1.5,1.5,1.5s1.5-0.67,1.5-1.5v-1.77   c2.67-0.67,4.66-3.09,4.66-5.96s-1.99-5.29-4.66-5.96v-6.11C24.91,70.38,25.58,71.41,25.58,72.6z M19.27,72.6   c0-1.19,0.67-2.22,1.66-2.76v5.52C19.95,74.83,19.27,73.8,19.27,72.6z M25.58,81.91c0,1.19-0.67,2.22-1.66,2.76v-5.52   C24.91,79.69,25.58,80.72,25.58,81.91z"></path><path d="M22.43,58.33c-10.44,0-18.93,8.49-18.93,18.93c0,10.44,8.49,18.93,18.93,18.93s18.93-8.49,18.93-18.93   C41.36,66.82,32.87,58.33,22.43,58.33z M22.43,93.19c-8.78,0-15.93-7.15-15.93-15.93c0-8.78,7.15-15.93,15.93-15.93   s15.93,7.15,15.93,15.93C38.36,86.04,31.21,93.19,22.43,93.19z"></path></g></svg>
